X: 0
T: The Gathering
C: Gordon Duncan
M: 6/8
L: 1/8
K: Dmaj
|: "D"AAA B2d | ABd d2f | "G"eee edf | "Em"edB "A"B2d |
"D"AAA B2d | ABd d2f | "G"eee Afe | "A"ddd "D"d2e :|
| "D"fef a2e | fed d2f | "G"eee edf | "Em"edB "A"B2e |
"D"fef a2e | fed d2f |"G" eee Afe | "A"ddd "D"d2e |
"Bm"fef a2e | "Bm"fed d2f | "Em"eee edf |"A" edB B2d |
"D"AAA B2d | ABd d2f | "G"eee Afe | "A"ddd "D"d3 |]